app/assets/images/home/logo_cover.svg

<svg enable-background="new 0.833 0 222 214" height="214" viewBox=".833 0 222 214" width="222" xmlns="http://www.w3.org/2000/svg"><g fill="#34495e"><path d="m103.062 99.781h-3.967v24.181h3.967c7.149 0 11.569-4.745 11.569-12.09-.001-7.347-4.42-12.091-11.569-12.091z"/><path d="m103.711 94.189h-11.116v35.361h11.116c10.269 0 17.55-6.76 17.55-17.68s-7.279-17.681-17.55-17.681zm0 34.192h-9.944v-33.021h9.944c9.621 0 16.38 6.371 16.38 16.512 0 10.142-6.758 16.509-16.38 16.509z"/><path d="m61.941 52.811c0-2.432-1.088-3.968-4.287-3.968h-6.145v7.872h6.016c3.201-.001 4.416-1.472 4.416-3.904z"/><path d="m58.483 65.035h-6.977v9.023h6.977c3.775 0 5.057-1.729 5.057-4.543.001-2.816-1.343-4.48-5.057-4.48z"/><path d="m216.754 0h-216.5l-.254.083v213.5l.253-.084h216.5 5.163v-213.499zm-193.579 133.971h-5.33v-44.201h5.33zm6.502 0h-5.332v-44.201h5.332zm45.51-63.369c0 7.936-5.824 12.607-16.639 12.607h-18.302v-43.518h18.879c8.639 0 14.207 3.968 14.207 11.264 0 5.184-2.561 8.062-6.016 9.343 4.031 1.153 7.871 4.097 7.871 10.304zm3.305 19.168v44.853c0 .521-.195.715-.91.131l-27.885-23.012v22.229h-4.875v-32.634l28.795 23.599v-35.166zm-10.985 22.361v-22.361h4.939v32.696l-28.795-23.595v35.102h-4.941v-44.787c0-.39.195-.715.91-.129zm44.238 99.019-2.638 1.523-2.639-1.523c-29.009-16.812-50.204-43.586-65.407-70.67h12.131c13.665 23.062 31.911 45.291 55.915 59.998 24.013-14.707 42.31-36.938 56.039-59.998h12.146c-15.281 27.084-36.537 53.858-65.547 70.67zm15.858-171.459h12.605l-14.462 18.879 16.189 24.638h-13.762l-10.363-15.808-3.646 4.479v11.327h-11.646v-43.515h11.646v18.047zm46.908 16.959v9.279h-15.74v7.486h19.771v9.792h-31.42l.002-43.517h30.523v9.791h-18.879v7.168zm-3.529 33.12h5.98l12.605 20.15-15.531 24.051h-5.461l15.271-23.726zm7.412 0h5.783l6.633 11.181 6.564-11.181h5.33l-12.352 19.175zm-17.486 17.226v4.161h-21.318v-15.796h24.506v4.354h-19.176v7.28zm0 5.331v4.095h-15.988v7.604h20.086v4.423h-25.416v-16.12zm3.187-22.557v4.42h-25.676v35.427h26.586v4.354h-31.916v-44.201zm-59.736 0c12.742 0 22.361 8.386 22.361 22.103 0 13.715-9.619 22.102-22.361 22.102h-17.095v-44.205zm-10.611-6.562h-11.645v-43.517h11.645zm105.122 50.763-8.904-15.016-9.103 15.016h-5.396l14.888-23.01 14.364 23.01zm7.344 0-15.08-24.051 13.064-20.15h5.461l-12.807 19.955 15.211 24.246zm11.606-113.866c-1.535 9.937-5.916 34.246-15.494 63.043h-11.104c8.804-25.655 13.384-48.028 15.447-60.015-31.269-8.264-63.99-12.448-97.354-12.448-46.582 0-82.49 8.252-97.262 12.295 1.992 11.938 6.469 34.328 15.242 60.166h-11.09c-9.538-28.957-13.796-53.254-15.278-63.17l-.676-4.513 4.371-1.305c10.999-3.281 51.042-13.992 104.694-13.992 35.938 0 71.168 4.734 104.721 14.068l4.502 1.252z"/></g></svg>

<?xml version="1.0" encoding="utf-8"?>
<!-- Generator: Adobe Illustrator 15.0.2, SVG Export Plug-In  -->
<!DOCTYPE svg PUBLIC "-//W3C//DTD SVG 1.0//EN" "http://www.w3.org/TR/2001/REC-SVG-20010904/DTD/svg10.dtd" [
	<!ENTITY ns_flows "http://ns.adobe.com/Flows/1.0/">
]>
<svg version="1.0"
	 xmlns="http://www.w3.org/2000/svg" xmlns:xlink="http://www.w3.org/1999/xlink" xmlns:a="http://ns.adobe.com/AdobeSVGViewerExtensions/3.0/"
	 x="0px" y="0px" width="222px" height="214px" viewBox="0.833 0 222 214"
	 overflow="visible" enable-background="new 0.833 0 222 214" xml:space="preserve">
<defs>
</defs>
<path fill="#34495E" d="M103.062,99.781h-3.967v24.181h3.967c7.149,0,11.569-4.745,11.569-12.09
	C114.63,104.525,110.211,99.781,103.062,99.781z"/>
<path fill="#34495E" d="M103.711,94.189H92.595v35.361h11.116c10.269,0,17.55-6.76,17.55-17.68S113.982,94.189,103.711,94.189z
	 M103.711,128.381h-9.944V95.36h9.944c9.621,0,16.38,6.371,16.38,16.512C120.091,122.014,113.333,128.381,103.711,128.381z"/>
<path fill="#34495E" d="M61.941,52.811c0-2.432-1.088-3.968-4.287-3.968h-6.145v7.872h6.016
	C60.726,56.714,61.941,55.243,61.941,52.811z"/>
<path fill="#34495E" d="M58.483,65.035h-6.977v9.023h6.977c3.775,0,5.057-1.729,5.057-4.543
	C63.541,66.699,62.197,65.035,58.483,65.035z"/>
<path fill="#34495E" d="M216.754,0H0.254L0,0.083v213.5l0.253-0.084h216.5h5.163V0H216.754z M23.175,133.971h-5.33V89.77h5.33
	V133.971z M29.677,133.971h-5.332V89.77h5.332V133.971z M75.187,70.602c0,7.936-5.824,12.607-16.639,12.607H40.246V39.691h18.879
	c8.639,0,14.207,3.968,14.207,11.264c0,5.184-2.561,8.062-6.016,9.343C71.347,61.451,75.187,64.395,75.187,70.602z M78.492,89.77
	v44.853c0,0.521-0.195,0.715-0.91,0.131l-27.885-23.012v22.229h-4.875v-32.634l28.795,23.599V89.77H78.492z M67.507,112.131V89.77
	h4.939v32.696L43.651,98.871v35.102H38.71V89.186c0-0.39,0.195-0.715,0.91-0.129L67.507,112.131z M111.745,211.15l-2.638,1.523
	l-2.639-1.523c-29.009-16.812-50.204-43.586-65.407-70.67h12.131c13.665,23.062,31.911,45.291,55.915,59.998
	c24.013-14.707,42.31-36.938,56.039-59.998h12.146C162.011,167.564,140.755,194.338,111.745,211.15z M127.603,39.691h12.605
	L125.746,58.57l16.189,24.638h-13.762L117.81,67.4l-3.646,4.479v11.327h-11.646V39.691h11.646v18.047L127.603,39.691z
	 M174.511,56.65v9.279h-15.74v7.486h19.771v9.792h-31.42l0.002-43.517h30.523v9.791h-18.879v7.168L174.511,56.65L174.511,56.65z
	 M170.982,89.77h5.98l12.605,20.15l-15.531,24.051h-5.461l15.271-23.726L170.982,89.77z M178.394,89.77h5.783l6.633,11.181
	l6.564-11.181h5.33l-12.352,19.175L178.394,89.77z M160.908,106.996v4.161H139.59V95.361h24.506v4.354H144.92v7.28L160.908,106.996
	L160.908,106.996z M160.908,112.327v4.095H144.92v7.604h20.086v4.423H139.59v-16.12L160.908,112.327L160.908,112.327z
	 M164.095,89.77v4.42h-25.676v35.427h26.586v4.354h-31.916V89.77H164.095z M104.359,89.77c12.742,0,22.361,8.386,22.361,22.103
	c0,13.715-9.619,22.102-22.361,22.102H87.264V89.77H104.359z M93.748,83.208H82.103V39.691h11.645V83.208z M198.87,133.971
	l-8.904-15.016l-9.103,15.016h-5.396l14.888-23.01l14.364,23.01H198.87z M206.214,133.971l-15.08-24.051l13.064-20.15h5.461
	l-12.807,19.955l15.211,24.246H206.214z M217.82,20.105c-1.535,9.937-5.916,34.246-15.494,63.043h-11.104
	c8.804-25.655,13.384-48.028,15.447-60.015c-31.269-8.264-63.99-12.448-97.354-12.448c-46.582,0-82.49,8.252-97.262,12.295
	c1.992,11.938,6.469,34.328,15.242,60.166h-11.09C6.667,54.189,2.409,29.892,0.927,19.976l-0.676-4.513l4.371-1.305
	C15.621,10.877,55.664,0.166,109.316,0.166c35.938,0,71.168,4.734,104.721,14.068l4.502,1.252L217.82,20.105z"/>
</svg>
